Sources/FrostedUI/Resources/Icons.xcassets/shop20.imageset/shop-20.svg

<svg width="20" height="20" viewBox="0 0 20 20" fill="none" xmlns="http://www.w3.org/2000/svg" data-fui-icon="true">
  <path
    d="M15.4248 1C17.126 1.00024 18.6602 2.02394 19.3135 3.59473L19.7109 4.5498C19.9022 5.0099 20.0003 5.50466 20 6.00293L19.9951 6.19727C19.936 7.34972 19.3589 8.36607 18.4932 9.01855V15.6943C18.4929 17.8294 16.762 19.5605 14.627 19.5605H5.37207C3.23717 19.5603 1.50609 17.8292 1.50586 15.6943V9.01758C0.640737 8.36507 0.0640105 7.34924 0.00488281 6.19727L0 6.00293C-0.000284616 5.50466 0.0977858 5.0099 0.289062 4.5498L0.686523 3.59473C1.33976 2.02393 2.87401 1.00024 4.5752 1H15.4248ZM6.87402 8.14648C6.18764 9.13972 5.04395 9.77627 3.77148 9.77637L3.57715 9.77148C3.38237 9.76157 3.19173 9.7357 3.00586 9.69727V15.6943C3.00609 17.0008 4.0656 18.0603 5.37207 18.0605H6.41016V13.7373C6.41016 12.989 7.01735 12.3821 7.76562 12.3818H12.2334C12.9819 12.3818 13.5889 12.9888 13.5889 13.7373V18.0605H14.627C15.9336 18.0605 16.9929 17.001 16.9932 15.6943V9.69727C16.8076 9.73559 16.6173 9.76158 16.4229 9.77148L16.2285 9.77637C14.9573 9.77627 13.8145 9.14098 13.1279 8.14941C12.4417 9.12599 11.3076 9.77622 10.002 9.77637L9.78516 9.77051C8.56975 9.70295 7.52167 9.07024 6.87402 8.14648ZM7.91016 18.0605H12.0889V13.8818H7.91016V18.0605ZM7.89258 4.37109L7.70801 5.61621C7.49995 7.01736 8.58542 8.27628 10.002 8.27637C11.4183 8.2761 12.5039 7.01725 12.2959 5.61621L12.1299 4.50293L11.7734 2.5H8.22656L7.89258 4.37109ZM4.5752 2.5C3.47988 2.50024 2.49182 3.15949 2.07129 4.1709L1.67383 5.12598C1.55868 5.40297 1.49984 5.70137 1.5 6.00195C1.50086 7.25774 2.51966 8.27612 3.77148 8.27637C4.87234 8.27622 5.81483 7.48617 6.00781 6.40234L6.41016 4.13867L6.6543 2.5H4.5752ZM13.6162 4.29395L13.9922 6.40234C14.1852 7.48617 15.1277 8.27622 16.2285 8.27637C17.4803 8.27611 18.4991 7.25773 18.5 6.00195C18.5002 5.70137 18.4413 5.40297 18.3262 5.12598L17.9287 4.1709C17.5082 3.15949 16.5201 2.50024 15.4248 2.5H13.3496L13.6162 4.29395Z"
    fill="currentColor"
  />
</svg>

<svg xmlns="http://www.w3.org/2000/svg" width="20" height="20" fill="none" data-fui-icon="true" viewBox="0 0 20 20"><path fill="currentColor" d="M15.425 1a4.21 4.21 0 0 1 3.889 2.595l.397.955c.191.46.29.955.289 1.453l-.005.194a3.77 3.77 0 0 1-1.502 2.822v6.675a3.867 3.867 0 0 1-3.866 3.867H5.372a3.867 3.867 0 0 1-3.866-3.867V9.018a3.77 3.77 0 0 1-1.501-2.82L0 6.002c0-.498.098-.993.29-1.453l.397-.955A4.21 4.21 0 0 1 4.575 1zM6.874 8.146a3.77 3.77 0 0 1-3.103 1.63l-.194-.005a4 4 0 0 1-.571-.074v5.997a2.367 2.367 0 0 0 2.366 2.367H6.41v-4.324c0-.748.607-1.355 1.356-1.355h4.467c.749 0 1.356.607 1.356 1.355v4.324h1.038a2.367 2.367 0 0 0 2.366-2.367V9.697a4 4 0 0 1-.57.074l-.194.005a3.77 3.77 0 0 1-3.101-1.627 3.81 3.81 0 0 1-3.126 1.627l-.217-.005a3.8 3.8 0 0 1-2.911-1.625m1.036 9.915h4.179v-4.18H7.91zM7.893 4.37l-.185 1.245a2.32 2.32 0 1 0 4.588 0l-.166-1.113-.357-2.003H8.227zM4.575 2.5c-1.095 0-2.083.66-2.504 1.67l-.397.956a2.276 2.276 0 0 0 2.098 3.15c1.1 0 2.043-.79 2.236-1.874L6.41 4.14 6.654 2.5zm9.041 1.794.376 2.108a2.27 2.27 0 0 0 2.236 1.874 2.276 2.276 0 0 0 2.098-3.15l-.397-.955A2.71 2.71 0 0 0 15.425 2.5H13.35z"/></svg>
